X:5563
T:Rio Grande
T:Sea shanty
O:england
C:anon.
R:shanty
M:6/8
L:1/8
K:D
A,|"D"DDD FFF|("A7"ED)E "D"D3|("D"A3-A2F)|"G"BA2-"D"A2A|
w:
w:Oh say were you e-ver in Ri-o Grande? Oh Ri-o It's
"G"BdB "D"AGF|"A7"GAG "Bm"FDE|"D"F>GF ("A7"ED)E|"D"D3 D2E|
w:
w:there that the ri-ver flows down gold-en sand. And we're bound for the Ri-o Grande. Then a-
"D"F3 ("A7"ED)E|"D"D6|"D"A3-A2F|"G"BA2- "D"A2A|
w:
w:way, love, a-way Way  down Ri-o So
("G"Bd)B ("D"AG)F|"A7"GAG "Bm"FDE|"D"F>GF ("A7"ED)E|"D"D3-D2|]
w:
w:fare ye well  my pret-ty young gel, For we're bound for the Ri-o Grande.
W:
W:Oh say were you ever in Rio Grande?
W:  Oh Rio
W:It's there that the river flows down golden sand.
W:  And we're bound for the Rio Grande.
W:Then away, love, away
W:  Way down Rio
W:So fare ye well my pretty young gel,
W:  For we're bound for the Rio Grande.


